app/dist/common/images/ikd.svg

<svg height="18" viewBox="0 0 18 18" width="18" xmlns="http://www.w3.org/2000/svg"><path d="m0 0h18v18h-18z" fill="#bd183a"/><path d="m4.8 7h-1.48l-1.32 4h1.48zm6.99 0h2.78c.57 0 1.66.27 1.38 1.33l-.52 1.67c-.11.33-.66 1-1.9 1h-3.13zm.52 3h.87c.23 0 .73-.1.86-.5l.35-1c.06-.28.04-.83-.52-.83h-.75l-.82 2.33z" fill="#fdffff"/><path d="m5.81 7h1.54l-.47 1.38 2.34-1.38h1.88l-2.56 1.67 1.37 2.33h-1.71l-1.02-1.67-.73.3-.47 1.37h-1.53l1.35-4z" fill="#fefffe"/></svg>

<!-- by TradingView --><svg width="18" height="18" viewBox="0 0 18 18" xmlns="http://www.w3.org/2000/svg"><path fill="#BD183A" d="M0 0h18v18H0z"/><path d="M4.8 7H3.32L2 11h1.48L4.8 7ZM11.79 7h2.78c.57 0 1.66.27 1.38 1.33L15.43 10c-.11.33-.66 1-1.9 1H10.4l1.39-4Zm.52 3h.87c.23 0 .73-.1.86-.5l.35-1c.06-.28.04-.83-.52-.83h-.75L12.3 10Z" fill="#FDFFFF"/><path d="M5.81 7h1.54l-.47 1.38L9.22 7h1.88L8.54 8.67 9.91 11H8.2L7.18 9.33l-.73.3L5.98 11H4.45L5.8 7Z" fill="#FEFFFE"/></svg>
